X:18178
T:Valse Nouvelle - Valse/Walzer/Waltz
C:Patrick Bouffard
Z:abc transcription Simon Wascher
N:please mail errors to simon.wascher@chello.at
M:3/4
L:1/4
K:Gm
B>AG|d2B/c/|B>AG|e2c/d/|
e>dc|A3|ABc|cB/c/B/A/|
B>AG|dc/d/c/A/|B>AG|e2c/d/|
e>dc|ABc|cB/c/B/A/|1G3:|2G/A/BG||
|:g>ec|Ace/g/|f>dB|GBd/f/|
e>cA|^FAc/e/|dc/d/c/B/|A/B/c/d/e/f/|
g>ec|Ace/g/|fd/f/d/B/|GBd/f/|
e>cA|^F/G/A/^F/A/c/|cB/c/B/A/|G3:|
